apps/wow-docs/public/component/dropdown/dropdown-guide-6.svg

<svg width="908" height="161" viewBox="0 0 908 161" fill="none" xmlns="http://www.w3.org/2000/svg">
<rect width="907" height="161" transform="translate(0.5)" fill="white"/>
<path d="M251.562 56.838H256.672V58.098H250.106V47.794H251.562V56.838ZM260.883 56.964C261.266 56.964 261.625 56.8567 261.961 56.642C262.297 56.418 262.563 56.1193 262.759 55.746C262.965 55.3633 263.067 54.9433 263.067 54.486C263.067 54.0287 262.965 53.6133 262.759 53.24C262.563 52.8573 262.297 52.5587 261.961 52.344C261.625 52.12 261.266 52.008 260.883 52.008C260.258 52.008 259.749 52.2367 259.357 52.694C258.965 53.1513 258.769 53.7487 258.769 54.486C258.769 55.2233 258.965 55.8207 259.357 56.278C259.749 56.7353 260.258 56.964 260.883 56.964ZM257.313 54.486C257.313 53.7767 257.458 53.142 257.747 52.582C258.046 52.022 258.457 51.588 258.979 51.28C259.511 50.9627 260.113 50.804 260.785 50.804C261.215 50.804 261.625 50.9113 262.017 51.126C262.419 51.3313 262.764 51.644 263.053 52.064V50.776H264.509V58.098L263.053 58.112V56.894C262.755 57.3233 262.409 57.6453 262.017 57.86C261.625 58.0653 261.215 58.168 260.785 58.168C260.113 58.168 259.511 58.014 258.979 57.706C258.457 57.3887 258.046 56.95 257.747 56.39C257.458 55.83 257.313 55.1953 257.313 54.486ZM270.037 58.168C269.673 58.168 269.276 58.07 268.847 57.874C268.427 57.678 268.063 57.3513 267.755 56.894V58.112H266.299V47.794H267.755V52.05C268.063 51.574 268.427 51.2427 268.847 51.056C269.276 50.86 269.678 50.762 270.051 50.762C270.723 50.762 271.325 50.9207 271.857 51.238C272.389 51.5553 272.804 51.994 273.103 52.554C273.402 53.114 273.551 53.7533 273.551 54.472C273.551 55.1907 273.402 55.83 273.103 56.39C272.804 56.95 272.389 57.3887 271.857 57.706C271.325 58.014 270.718 58.168 270.037 58.168ZM267.755 54.486C267.755 54.9433 267.853 55.3633 268.049 55.746C268.245 56.1287 268.511 56.432 268.847 56.656C269.192 56.88 269.561 56.992 269.953 56.992C270.588 56.992 271.101 56.7633 271.493 56.306C271.894 55.8393 272.095 55.2327 272.095 54.486C272.095 53.7487 271.894 53.1513 271.493 52.694C271.101 52.2273 270.588 51.994 269.953 51.994C269.561 51.994 269.197 52.106 268.861 52.33C268.525 52.554 268.254 52.8573 268.049 53.24C267.853 53.6227 267.755 54.038 267.755 54.486ZM280.185 53.898C280.12 53.3567 279.928 52.904 279.611 52.54C279.294 52.1667 278.836 51.98 278.239 51.98C277.698 51.98 277.226 52.1667 276.825 52.54C276.433 52.904 276.195 53.3613 276.111 53.912L280.185 53.898ZM274.711 54.458C274.711 53.7393 274.86 53.1 275.159 52.54C275.458 51.98 275.868 51.546 276.391 51.238C276.923 50.9207 277.53 50.762 278.211 50.762C279.172 50.762 279.877 50.9953 280.325 51.462C280.782 51.9287 281.09 52.358 281.249 52.75C281.464 53.2727 281.571 53.8513 281.571 54.486C281.571 54.6167 281.566 54.7333 281.557 54.836C281.548 54.9293 281.543 54.99 281.543 55.018H276.111C276.195 55.578 276.438 56.0353 276.839 56.39C277.24 56.7447 277.702 56.922 278.225 56.922C278.645 56.922 278.99 56.8567 279.261 56.726C279.541 56.5953 279.732 56.474 279.835 56.362C279.938 56.25 280.036 56.124 280.129 55.984L281.305 56.516C281.081 56.9733 280.708 57.3607 280.185 57.678C279.662 57.986 279.004 58.14 278.211 58.14C277.53 58.14 276.923 57.986 276.391 57.678C275.868 57.3607 275.458 56.922 275.159 56.362C274.86 55.802 274.711 55.1673 274.711 54.458ZM284.329 47.794V58.098H282.873V47.794H284.329Z" fill="#6B6B6B"/>
<mask id="path-2-inside-1_2269_3323" fill="white">
<path d="M249 72C249 69.7909 250.791 68 253 68H445C447.209 68 449 69.7909 449 72V106C449 108.209 447.209 110 445 110H253C250.791 110 249 108.209 249 106V72Z"/>
</mask>
<path d="M249 72C249 69.7909 250.791 68 253 68H445C447.209 68 449 69.7909 449 72V106C449 108.209 447.209 110 445 110H253C250.791 110 249 108.209 249 106V72Z" fill="white"/>
<path d="M253 69H445V67H253V69ZM448 72V106H450V72H448ZM445 109H253V111H445V109ZM250 106V72H248V106H250ZM253 109C251.343 109 250 107.657 250 106H248C248 108.761 250.239 111 253 111V109ZM448 106C448 107.657 446.657 109 445 109V111C447.761 111 450 108.761 450 106H448ZM445 69C446.657 69 448 70.3431 448 72H450C450 69.2386 447.761 67 445 67V69ZM253 67C250.239 67 248 69.2386 248 72H250C250 70.3431 251.343 69 253 69V67Z" fill="#C2C2C2" mask="url(#path-2-inside-1_2269_3323)"/>
<path d="M270.552 84.632H267V95.064H265.592V84.632H262.024V83.384H270.552V84.632ZM276.743 90.392C276.668 89.7093 276.444 89.1387 276.071 88.68C275.708 88.2107 275.159 87.976 274.423 87.976C273.751 87.976 273.175 88.2053 272.695 88.664C272.225 89.112 271.943 89.6933 271.847 90.408L276.743 90.392ZM270.455 90.936C270.455 90.1253 270.62 89.4053 270.951 88.776C271.281 88.1467 271.745 87.656 272.343 87.304C272.94 86.952 273.617 86.776 274.375 86.776C275.964 86.776 277.1 87.5227 277.783 89.016C278.007 89.6133 278.119 90.248 278.119 90.92C278.119 91.1013 278.113 91.2507 278.103 91.368C278.092 91.4747 278.087 91.5333 278.087 91.544H271.847C271.953 92.2373 272.241 92.8027 272.711 93.24C273.191 93.6773 273.751 93.896 274.391 93.896C274.903 93.896 275.324 93.816 275.655 93.656C275.996 93.496 276.231 93.3413 276.359 93.192C276.497 93.032 276.62 92.872 276.727 92.712L277.847 93.288C277.601 93.7893 277.18 94.216 276.583 94.568C275.996 94.92 275.26 95.096 274.375 95.096C273.617 95.096 272.94 94.92 272.343 94.568C271.745 94.216 271.281 93.7253 270.951 93.096C270.62 92.4667 270.455 91.7467 270.455 90.936ZM283.666 90.936L286.754 95.064H285.01L282.882 92.12L280.786 95.064H279.026L282.082 90.936L278.994 86.792H280.77L282.882 89.784L285.01 86.792H286.77L283.666 90.936ZM291.231 95.096C290.549 95.096 289.989 94.872 289.551 94.424C289.114 93.976 288.885 93.4 288.863 92.696V88.072H287.487V86.84H288.863V84.648H290.271V86.84H292.047V88.072H290.271V92.6C290.271 92.92 290.362 93.1973 290.543 93.432C290.725 93.6667 290.954 93.784 291.231 93.784C291.391 93.784 291.535 93.7733 291.663 93.752C291.791 93.7307 291.919 93.704 292.047 93.672L292.303 94.968C291.898 95.0533 291.541 95.096 291.231 95.096Z" fill="#C2C2C2"/>
<path d="M461.5 72C461.5 70.067 463.067 68.5 465 68.5H657C658.933 68.5 660.5 70.067 660.5 72V106C660.5 107.933 658.933 109.5 657 109.5H465C463.067 109.5 461.5 107.933 461.5 106V72Z" fill="white"/>
<path d="M461.5 72C461.5 70.067 463.067 68.5 465 68.5H657C658.933 68.5 660.5 70.067 660.5 72V106C660.5 107.933 658.933 109.5 657 109.5H465C463.067 109.5 461.5 107.933 461.5 106V72Z" stroke="#C2C2C2"/>
<path d="M484.712 82.712V87.544H480.68V89.208H486.344V90.376H473.592V89.208H479.24V87.544H475.208V82.712H484.712ZM475.016 91.736H484.776V96.232H483.32V92.92H475.016V91.736ZM483.272 86.376V83.864H476.632V86.376H483.272ZM493.064 89.832V88.456H489.064V84.904H497.128V83.592H489.032V82.456H498.568V85.96H490.488V87.32H498.872V88.456H494.536V89.832H500.2V91.016H487.416V89.832H493.064ZM488.84 92.024H498.664V96.104H497.192V93.208H488.84V92.024ZM507.609 82.36C509.187 82.36 510.414 82.568 511.289 82.984C512.174 83.4 512.617 83.9973 512.617 84.776C512.617 85.5653 512.174 86.1733 511.289 86.6C510.414 87.016 509.187 87.224 507.609 87.224C506.03 87.224 504.803 87.016 503.929 86.6C503.054 86.1733 502.617 85.5653 502.617 84.776C502.617 83.9973 503.054 83.4 503.929 82.984C504.803 82.568 506.03 82.36 507.609 82.36ZM501.241 88.104H513.993V89.272H501.241V88.104ZM502.761 90.376H512.377V93.656H504.233V94.952H512.793V96.088H502.809V92.616H510.937V91.48H502.761V90.376ZM504.121 84.776C504.121 85.2133 504.419 85.5493 505.017 85.784C505.625 86.008 506.489 86.12 507.609 86.12C508.739 86.12 509.603 86.008 510.201 85.784C510.809 85.5493 511.113 85.2133 511.113 84.776C511.113 84.3493 510.809 84.0187 510.201 83.784C509.593 83.5493 508.729 83.432 507.609 83.432C506.499 83.432 505.641 83.5493 505.033 83.784C504.425 84.0187 504.121 84.3493 504.121 84.776ZM521.713 82.312V85.352H529.889V86.536H520.289V82.312H521.713ZM518.593 87.656H531.377V88.824H525.681V90.216H529.777V93.592H521.633V94.936H530.241V96.088H520.177V92.536H528.321V91.352H520.145V90.216H524.241V88.824H518.593V87.656ZM544.049 82.088V96.248H542.609V88.632H540.033V87.448H542.609V82.088H544.049ZM532.897 83.4H539.201V88.424H534.369V91.672C535.553 91.672 536.598 91.64 537.505 91.576C538.422 91.512 539.361 91.4 540.321 91.24L540.449 92.424C539.457 92.6053 538.476 92.728 537.505 92.792C536.534 92.856 535.377 92.888 534.033 92.888H532.913V87.256H537.777V84.584H532.897V83.4ZM559.961 85.352V82.12H561.417V92.648H559.961V86.568H557.001V85.352H559.961ZM549.753 89.544C550.809 89.1493 551.652 88.504 552.281 87.608C552.91 86.712 553.225 85.7253 553.225 84.648V82.952H554.681V84.68C554.681 85.6613 554.985 86.5733 555.593 87.416C556.201 88.248 557.017 88.8507 558.041 89.224L557.273 90.36C556.516 90.0613 555.854 89.6347 555.289 89.08C554.724 88.5147 554.286 87.8587 553.977 87.112C553.678 87.944 553.23 88.6693 552.633 89.288C552.046 89.9067 551.342 90.376 550.521 90.696L549.753 89.544ZM552.281 91.496H553.737V94.728H561.753V95.928H552.281V91.496ZM569.625 83.112V84.296H565.577V85.928H569.497V87.048H565.577V88.792C566.623 88.7813 567.471 88.7547 568.121 88.712C568.783 88.6693 569.455 88.5787 570.137 88.44L570.281 89.624C569.513 89.7733 568.751 89.8747 567.993 89.928C567.236 89.9707 566.271 89.992 565.097 89.992H564.169V83.112H569.625ZM565.993 91.384H575.513V96.232H574.057V92.584H565.993V91.384ZM571.033 82.376H572.409V85.736H574.121V82.104H575.513V90.68H574.121V86.936H572.409V90.6H571.033V82.376ZM588.33 82.12V87.848H590.57V89.064H588.33V96.232H586.874V82.12H588.33ZM577.338 84.328H580.794V82.296H582.282V84.328H585.658V85.512H577.338V84.328ZM578.09 89.864C578.09 89.2347 578.239 88.6747 578.538 88.184C578.836 87.6827 579.247 87.2933 579.77 87.016C580.303 86.7387 580.895 86.6 581.546 86.6C582.207 86.6 582.799 86.7387 583.322 87.016C583.855 87.2933 584.271 87.6827 584.57 88.184C584.868 88.6747 585.018 89.2347 585.018 89.864C585.018 90.4933 584.868 91.0587 584.57 91.56C584.271 92.0507 583.855 92.4347 583.322 92.712C582.799 92.9893 582.207 93.128 581.546 93.128C580.895 93.128 580.303 92.9893 579.77 92.712C579.247 92.4347 578.836 92.0507 578.538 91.56C578.239 91.0587 578.09 90.4933 578.09 89.864ZM579.482 89.864C579.482 90.472 579.674 90.968 580.058 91.352C580.442 91.736 580.938 91.928 581.546 91.928C582.154 91.928 582.65 91.736 583.034 91.352C583.428 90.968 583.626 90.472 583.626 89.864C583.626 89.256 583.428 88.76 583.034 88.376C582.65 87.992 582.154 87.8 581.546 87.8C580.948 87.8 580.452 87.992 580.058 88.376C579.674 88.76 579.482 89.256 579.482 89.864ZM598.986 87.096V82.408H600.346V95.528H598.986V88.296H596.794V87.096H598.986ZM591.05 92.152C591.999 91.576 592.741 90.728 593.274 89.608C593.807 88.4773 594.074 87.2827 594.074 86.024V83.432H595.482V85.976C595.482 87.16 595.727 88.2853 596.218 89.352C596.709 90.4187 597.407 91.2347 598.314 91.8L597.482 92.936C596.853 92.552 596.309 92.024 595.85 91.352C595.402 90.68 595.05 89.9173 594.794 89.064C594.527 89.9813 594.149 90.8027 593.658 91.528C593.178 92.2533 592.607 92.824 591.946 93.24L591.05 92.152ZM601.85 82.104H603.258V96.216H601.85V82.104ZM608.138 93.24V89.512C607.552 89.192 607.093 88.7867 606.762 88.296C606.442 87.7947 606.282 87.2347 606.282 86.616C606.282 85.8907 606.501 85.2507 606.938 84.696C607.386 84.1413 608 83.7147 608.778 83.416C609.557 83.1067 610.442 82.952 611.434 82.952C612.437 82.952 613.328 83.1067 614.106 83.416C614.896 83.7147 615.509 84.1413 615.946 84.696C616.384 85.2507 616.602 85.8907 616.602 86.616C616.602 87.2347 616.442 87.7893 616.122 88.28C615.813 88.76 615.37 89.1653 614.794 89.496V93.24H617.85V94.44H605.066V93.24H608.138ZM607.706 86.616C607.706 87.1173 607.861 87.56 608.17 87.944C608.49 88.3173 608.933 88.6107 609.498 88.824C610.064 89.0267 610.709 89.128 611.434 89.128C612.16 89.128 612.805 89.0267 613.37 88.824C613.936 88.6107 614.378 88.3173 614.698 87.944C615.018 87.56 615.178 87.1173 615.178 86.616C615.178 86.1147 615.018 85.6773 614.698 85.304C614.378 84.92 613.936 84.6267 613.37 84.424C612.805 84.2107 612.16 84.104 611.434 84.104C610.709 84.104 610.064 84.2107 609.498 84.424C608.933 84.6267 608.49 84.92 608.17 85.304C607.861 85.6773 607.706 86.1147 607.706 86.616ZM613.322 93.24V90.056C612.768 90.1947 612.138 90.264 611.434 90.264C610.752 90.264 610.133 90.1947 609.578 90.056V93.24H613.322Z" fill="#C2C2C2"/>
<path d="M645 88L639 93L633 88" stroke="#C2C2C2" stroke-width="1.4" stroke-linejoin="bevel"/>
<rect x="449" y="68" width="12" height="42" fill="white"/>
<rect x="449" y="68" width="12" height="42" fill="#FF0000" fill-opacity="0.1"/>
<path d="M448.076 78.5757C447.841 78.8101 447.841 79.1899 448.076 79.4243L451.894 83.2426C452.128 83.477 452.508 83.477 452.743 83.2426C452.977 83.0083 452.977 82.6284 452.743 82.3941L449.349 79L452.743 75.6059C452.977 75.3716 452.977 74.9917 452.743 74.7574C452.508 74.523 452.128 74.523 451.894 74.7574L448.076 78.5757ZM460.924 79.4243C461.159 79.1899 461.159 78.8101 460.924 78.5757L457.106 74.7574C456.872 74.523 456.492 74.523 456.257 74.7574C456.023 74.9917 456.023 75.3716 456.257 75.6059L459.651 79L456.257 82.3941C456.023 82.6284 456.023 83.0083 456.257 83.2426C456.492 83.477 456.872 83.477 457.106 83.2426L460.924 79.4243ZM448.5 79.6H460.5V78.4H448.5V79.6Z" fill="#6B6B6B"/>
<path d="M444.247 61.042L442.791 61.028V52.418L441.013 53.426L440.397 52.208L442.805 50.864H444.247V61.042ZM446.375 59.768C446.506 59.6467 446.982 59.208 447.803 58.452C448.559 57.7707 449.161 57.2107 449.609 56.772C450.067 56.324 450.449 55.8667 450.757 55.4C451.065 54.924 451.219 54.476 451.219 54.056C451.219 53.4773 451.051 53.006 450.715 52.642C450.389 52.2687 449.964 52.082 449.441 52.082C449.04 52.082 448.653 52.2127 448.279 52.474C447.906 52.7353 447.631 53.0713 447.453 53.482L446.179 52.922C446.459 52.2873 446.903 51.7693 447.509 51.368C448.125 50.9573 448.769 50.752 449.441 50.752C450.067 50.752 450.622 50.892 451.107 51.172C451.602 51.452 451.985 51.844 452.255 52.348C452.535 52.8427 452.675 53.412 452.675 54.056C452.675 54.6907 452.484 55.3207 452.101 55.946C451.728 56.5713 451.271 57.15 450.729 57.682C450.197 58.214 449.516 58.8347 448.685 59.544L448.433 59.768H452.829V61.042H446.515L446.375 59.768ZM458.138 59.964C458.764 59.964 459.272 59.7353 459.664 59.278C460.056 58.8113 460.252 58.2047 460.252 57.458C460.252 56.7207 460.056 56.1233 459.664 55.666C459.272 55.2087 458.764 54.98 458.138 54.98C457.746 54.98 457.382 55.092 457.046 55.316C456.71 55.54 456.444 55.8433 456.248 56.226C456.052 56.5993 455.954 57.01 455.954 57.458C455.954 57.9153 456.052 58.3353 456.248 58.718C456.444 59.1007 456.71 59.404 457.046 59.628C457.382 59.852 457.746 59.964 458.138 59.964ZM454.484 53.776H455.94V55.036C456.192 54.616 456.542 54.3033 456.99 54.098C457.438 53.8833 457.849 53.776 458.222 53.776C458.904 53.776 459.506 53.9347 460.028 54.252C460.56 54.56 460.971 54.994 461.26 55.554C461.559 56.1047 461.708 56.7393 461.708 57.458C461.708 58.1767 461.559 58.8207 461.26 59.39C460.971 59.95 460.56 60.3887 460.028 60.706C459.506 61.014 458.904 61.168 458.222 61.168C457.849 61.168 457.438 61.0607 456.99 60.846C456.542 60.622 456.192 60.3 455.94 59.88V64.234H454.484V53.776ZM466.851 57.444L469.553 61.098H467.747L465.997 58.62L464.261 61.098H462.455L465.115 57.444L462.399 53.776H464.219L465.997 56.324L467.761 53.776H469.581L466.851 57.444Z" fill="#6B6B6B"/>
</svg>

<svg xmlns="http://www.w3.org/2000/svg" width="908" height="161" fill="none"><path fill="#fff" d="M.5 0h907v161H.5z"/><path fill="#6B6B6B" d="M251.562 56.838h5.11v1.26h-6.566V47.794h1.456zm9.321.126q.574 0 1.078-.322.504-.336.798-.896.308-.575.308-1.26 0-.686-.308-1.246a2.26 2.26 0 0 0-.798-.896 1.9 1.9 0 0 0-1.078-.336q-.938 0-1.526.686t-.588 1.792.588 1.792 1.526.686m-3.57-2.478q0-1.065.434-1.904.449-.84 1.232-1.302.798-.476 1.806-.476.644 0 1.232.322.603.308 1.036.938v-1.288h1.456v7.322l-1.456.014v-1.218q-.447.644-1.036.966a2.6 2.6 0 0 1-1.232.308q-1.008 0-1.806-.462a3.36 3.36 0 0 1-1.232-1.316q-.434-.84-.434-1.904m12.724 3.682q-.546 0-1.19-.294-.63-.294-1.092-.98v1.218h-1.456V47.794h1.456v4.256q.462-.714 1.092-.994.644-.294 1.204-.294 1.008 0 1.806.476a3.3 3.3 0 0 1 1.246 1.316q.448.84.448 1.918t-.448 1.918a3.3 3.3 0 0 1-1.246 1.316q-.798.462-1.82.462m-2.282-3.682q0 .686.294 1.26t.798.91q.518.336 1.106.336.952 0 1.54-.686.602-.7.602-1.82 0-1.106-.602-1.792-.588-.7-1.54-.7a1.93 1.93 0 0 0-1.092.336 2.5 2.5 0 0 0-.812.91 2.7 2.7 0 0 0-.294 1.246m12.43-.588q-.098-.812-.574-1.358-.476-.56-1.372-.56-.812 0-1.414.56-.588.546-.714 1.372zm-5.474.56q0-1.078.448-1.918a3.25 3.25 0 0 1 1.232-1.302q.798-.476 1.82-.476 1.442 0 2.114.7.685.7.924 1.288.322.784.322 1.736 0 .195-.014.35a3 3 0 0 0-.014.182h-5.432q.126.84.728 1.372a2.03 2.03 0 0 0 1.386.532q.63 0 1.036-.196.42-.196.574-.364a3 3 0 0 0 .294-.378l1.176.532q-.336.686-1.12 1.162-.785.462-1.974.462-1.022 0-1.82-.462a3.35 3.35 0 0 1-1.232-1.316q-.448-.84-.448-1.904m9.618-6.664v10.304h-1.456V47.794z"/><mask id="a" fill="#fff"><path d="M249 72a4 4 0 0 1 4-4h192a4 4 0 0 1 4 4v34a4 4 0 0 1-4 4H253a4 4 0 0 1-4-4z"/></mask><path fill="#fff" d="M249 72a4 4 0 0 1 4-4h192a4 4 0 0 1 4 4v34a4 4 0 0 1-4 4H253a4 4 0 0 1-4-4z"/><path fill="#C2C2C2" d="M253 69h192v-2H253zm195 3v34h2V72zm-3 37H253v2h192zm-195-3V72h-2v34zm3 3a3 3 0 0 1-3-3h-2a5 5 0 0 0 5 5zm195-3a3 3 0 0 1-3 3v2a5 5 0 0 0 5-5zm-3-37a3 3 0 0 1 3 3h2a5 5 0 0 0-5-5zm-192-2a5 5 0 0 0-5 5h2a3 3 0 0 1 3-3z" mask="url(#a)"/><path fill="#C2C2C2" d="M270.552 84.632H267v10.432h-1.408V84.632h-3.568v-1.248h8.528zm6.191 5.76q-.112-1.024-.672-1.712-.544-.704-1.648-.704-1.008 0-1.728.688-.704.672-.848 1.744zm-6.288.544q0-1.215.496-2.16.495-.945 1.392-1.472.895-.528 2.032-.528 2.384 0 3.408 2.24.336.896.336 1.904a5 5 0 0 1-.032.624h-6.24q.159 1.04.864 1.696.72.656 1.68.656.768 0 1.264-.24.512-.24.704-.464.207-.24.368-.48l1.12.576q-.369.752-1.264 1.28-.88.528-2.208.528-1.137 0-2.032-.528a3.6 3.6 0 0 1-1.392-1.472q-.496-.945-.496-2.16m13.211 0 3.088 4.128h-1.744l-2.128-2.944-2.096 2.944h-1.76l3.056-4.128-3.088-4.144h1.776l2.112 2.992 2.128-2.992h1.76zm7.565 4.16q-1.023 0-1.68-.672-.655-.672-.688-1.728v-4.624h-1.376V86.84h1.376v-2.192h1.408v2.192h1.776v1.232h-1.776V92.6q0 .48.272.832a.84.84 0 0 0 .688.352q.24 0 .432-.032t.384-.08l.256 1.296a5.3 5.3 0 0 1-1.072.128"/><path fill="#fff" d="M461.5 72a3.5 3.5 0 0 1 3.5-3.5h192a3.5 3.5 0 0 1 3.5 3.5v34a3.5 3.5 0 0 1-3.5 3.5H465a3.5 3.5 0 0 1-3.5-3.5z"/><path stroke="#C2C2C2" d="M461.5 72a3.5 3.5 0 0 1 3.5-3.5h192a3.5 3.5 0 0 1 3.5 3.5v34a3.5 3.5 0 0 1-3.5 3.5H465a3.5 3.5 0 0 1-3.5-3.5z"/><path fill="#C2C2C2" d="M484.712 82.712v4.832h-4.032v1.664h5.664v1.168h-12.752v-1.168h5.648v-1.664h-4.032v-4.832zm-9.696 9.024h9.76v4.496h-1.456V92.92h-8.304zm8.256-5.36v-2.512h-6.64v2.512zm9.792 3.456v-1.376h-4v-3.552h8.064v-1.312h-8.096v-1.136h9.536v3.504h-8.08v1.36h8.384v1.136h-4.336v1.376h5.664v1.184h-12.784v-1.184zm-4.224 2.192h9.824v4.08h-1.472v-2.896h-8.352zm18.769-9.664q2.367 0 3.68.624 1.328.624 1.328 1.792 0 1.184-1.328 1.824-1.313.624-3.68.624-2.369 0-3.68-.624-1.312-.64-1.312-1.824 0-1.168 1.312-1.792 1.311-.624 3.68-.624m-6.368 5.744h12.752v1.168h-12.752zm1.52 2.272h9.616v3.28h-8.144v1.296h8.56v1.136h-9.984v-3.472h8.128V91.48h-8.176zm1.36-5.6q0 .656.896 1.008.912.336 2.592.336 1.695 0 2.592-.336.912-.352.912-1.008 0-.64-.912-.992t-2.592-.352q-1.665 0-2.576.352-.912.352-.912.992m17.592-2.464v3.04h8.176v1.184h-9.6v-4.224zm-3.12 5.344h12.784v1.168h-5.696v1.392h4.096v3.376h-8.144v1.344h8.608v1.152h-10.064v-3.552h8.144v-1.184h-8.176v-1.136h4.096v-1.392h-5.648zm25.456-5.568v14.16h-1.44v-7.616h-2.576v-1.184h2.576v-5.36zM532.897 83.4h6.304v5.024h-4.832v3.248a45 45 0 0 0 3.136-.096 30 30 0 0 0 2.816-.336l.128 1.184q-1.488.272-2.944.368a54 54 0 0 1-3.472.096h-1.12v-5.632h4.864v-2.672h-4.88zm27.064 1.952V82.12h1.456v10.528h-1.456v-6.08h-2.96v-1.216zm-10.208 4.192q1.584-.592 2.528-1.936a5.04 5.04 0 0 0 .944-2.96v-1.696h1.456v1.728q0 1.472.912 2.736.912 1.248 2.448 1.808l-.768 1.136a5.9 5.9 0 0 1-1.984-1.28 6 6 0 0 1-1.312-1.968 6 6 0 0 1-1.344 2.176 5.75 5.75 0 0 1-2.112 1.408zm2.528 1.952h1.456v3.232h8.016v1.2h-9.472zm17.344-8.384v1.184h-4.048v1.632h3.92v1.12h-3.92v1.744a48 48 0 0 0 2.544-.08 15 15 0 0 0 2.016-.272l.144 1.184q-1.151.224-2.288.304-1.135.064-2.896.064h-.928v-6.88zm-3.632 8.272h9.52v4.848h-1.456v-3.648h-8.064zm5.04-9.008h1.376v3.36h1.712v-3.632h1.392v8.576h-1.392v-3.744h-1.712V90.6h-1.376zm17.297-.256v5.728h2.24v1.216h-2.24v7.168h-1.456V82.12zm-10.992 2.208h3.456v-2.032h1.488v2.032h3.376v1.184h-8.32zm.752 5.536q0-.945.448-1.68.447-.751 1.232-1.168a3.8 3.8 0 0 1 1.776-.416q.992 0 1.776.416.8.416 1.248 1.168.447.735.448 1.68 0 .945-.448 1.696-.449.736-1.248 1.152-.785.416-1.776.416a3.8 3.8 0 0 1-1.776-.416 3.1 3.1 0 0 1-1.232-1.152 3.25 3.25 0 0 1-.448-1.696m1.392 0q0 .912.576 1.488t1.488.576 1.488-.576q.591-.576.592-1.488 0-.912-.592-1.488-.576-.576-1.488-.576-.897 0-1.488.576-.576.576-.576 1.488m19.504-2.768v-4.688h1.36v13.12h-1.36v-7.232h-2.192v-1.2zm-7.936 5.056q1.424-.864 2.224-2.544.8-1.695.8-3.584v-2.592h1.408v2.544q0 1.776.736 3.376t2.096 2.448l-.832 1.136q-.944-.576-1.632-1.584a8.5 8.5 0 0 1-1.056-2.288 8.7 8.7 0 0 1-1.136 2.464q-.72 1.088-1.712 1.712zm10.8-10.048h1.408v14.112h-1.408zm6.288 11.136v-3.728q-.88-.48-1.376-1.216a3.06 3.06 0 0 1-.48-1.68q0-1.087.656-1.92.673-.832 1.84-1.28 1.168-.465 2.656-.464 1.505 0 2.672.464 1.185.448 1.84 1.28a3 3 0 0 1 .656 1.92q0 .928-.48 1.664-.464.72-1.328 1.216v3.744h3.056v1.2h-12.784v-1.2zm-.432-6.624q0 .752.464 1.328.48.56 1.328.88.849.304 1.936.304 1.089 0 1.936-.304.849-.32 1.328-.88.48-.576.48-1.328t-.48-1.312q-.48-.576-1.328-.88-.847-.32-1.936-.32-1.087 0-1.936.32-.848.304-1.328.88-.464.56-.464 1.312m5.616 6.624v-3.184a7.8 7.8 0 0 1-1.888.208q-1.023 0-1.856-.208v3.184z"/><path stroke="#C2C2C2" stroke-linejoin="bevel" stroke-width="1.4" d="m645 88-6 5-6-5"/><path fill="#fff" d="M449 68h12v42h-12z"/><path fill="red" fill-opacity=".1" d="M449 68h12v42h-12z"/><path fill="#6B6B6B" d="M448.076 78.576a.6.6 0 0 0 0 .848l3.818 3.819a.6.6 0 0 0 .849-.849L449.349 79l3.394-3.394a.6.6 0 0 0-.849-.849zm12.848.848a.6.6 0 0 0 0-.848l-3.818-3.819a.6.6 0 0 0-.849.849L459.651 79l-3.394 3.394a.6.6 0 0 0 .849.849zM448.5 79.6h12v-1.2h-12zm-4.253-18.558-1.456-.014v-8.61l-1.778 1.008-.616-1.218 2.408-1.344h1.442zm2.128-1.274 1.428-1.316a62 62 0 0 0 1.806-1.68q.686-.672 1.148-1.372.462-.714.462-1.344 0-.868-.504-1.414-.49-.56-1.274-.56-.601 0-1.162.392a2.35 2.35 0 0 0-.826 1.008l-1.274-.56a3.57 3.57 0 0 1 1.33-1.554q.924-.615 1.932-.616.939 0 1.666.42.743.42 1.148 1.176.42.742.42 1.708 0 .953-.574 1.89a8.6 8.6 0 0 1-1.372 1.736 36 36 0 0 1-2.044 1.862l-.252.224h4.396v1.274h-6.314zm11.763.196q.939 0 1.526-.686.588-.7.588-1.82 0-1.106-.588-1.792-.587-.686-1.526-.686a1.93 1.93 0 0 0-1.092.336 2.37 2.37 0 0 0-.798.91 2.6 2.6 0 0 0-.294 1.232q0 .686.294 1.26t.798.91 1.092.336m-3.654-6.188h1.456v1.26q.378-.63 1.05-.938.672-.322 1.232-.322 1.023 0 1.806.476.798.462 1.232 1.302.448.825.448 1.904t-.448 1.932q-.434.84-1.232 1.316-.783.462-1.806.462-.56 0-1.232-.322a2.5 2.5 0 0 1-1.05-.966v4.354h-1.456zm12.367 3.668 2.702 3.654h-1.806l-1.75-2.478-1.736 2.478h-1.806l2.66-3.654-2.716-3.668h1.82l1.778 2.548 1.764-2.548h1.82z"/></svg>
